!!!OTL: 1431. Schwerer Abschied beim Urlaub.
!!!ARE: Europa, Mitteleuropa, Deutschland, Hessen, Rheinland
!!!SCT: E1431
!!!TXL: @@DE
!!!YEM: Copyright 1995, estate of Helmut Schaffrath.
**kern	**text
*ICvox	*
*M3/4	*
*k[f#]	*
*G:	*
!LO:TX:a:t=Etwas bewegt.	!
!LO:TX:a:t=Lahn- und Taunusgegend, Rheinlande, Weſterwald, Wetterau.	!
{8d	Auf
8d	der
=1	=1
8gL	Ei-
8bJ	-ſen-
8.b/	-bahn
16b/	bin
8b/	ich
8b/	ge-
=2	=2
8aL	-fah-
8bJ	.
4cc}	-ren
{8dd	am
8dd	.
=3	=3
8b	vier-
8b	.
8b	-ʒehn-
8b	.
8ddL	-ten
8bJ	.
=4	=4
4a	Mai,
4r}	.
{8a	ſchö-
8b/	-ne
=5	=5
8ccL	Mäd-
8eeJ	.
8.ee	-chen
16ee	hab
8dd	ich
8cc	ge-
=6	=6
8bL	-lie-
8ddJ	.
4dd}	-bet
*	*^
{8b	des	(ʒu
8b	.	.
=7	=7	=7
4a	Nachts	Ehr
8dd	um	und
8dd	.	.
8cc	ʒwei,	ʒu
8cc	.	.
=8	=8	=8
2b}	drei.	Treu.)
*	*v	*v
==	==
!!!AGN: Staende -, Soldaten - Lied, Liebe, Abschied
!!!ONB: ESAC (Essen Associative Code) Database: ERK3
!!!AMT: simple triple
!!!AIN: vox
!!!EED: Helmut Schaffrath
!!!EEV: 1.0
!!!GTL: Staendelieder (Berufslieder). 1. Soldaten- und Kriegslieder. Soldatenlieder seit dem 30jaehr. Kriege.
!!!URL-scan: https://rosdok.uni-rostock.de/mcrviewer/recordIdentifier/rosdok_ppn745177999/iview2/phys_0294.iview2?x=-128.77276441889308&y=251.25000515580177&scale=0.5870222003877485&rotation=0&layout=singlePageLayout
!!!ENC: Anna Maria Matuszewska
!!!EEV: 2024/12/31
*-	*-
